X: 3
T: The Ballydesmond
R: polka
M: 2/4
L: 1/8
K: Ador
|: A/G/ |EA A>B | cd e2 | G/A/G/F/ G>A | GE ED |
EA- A>B | cd e>f | g/f/e dB | A2 A :|
|: B/d/ |ea a>b | a/b/a/g/ ef | g>f ga | ge ed |
ea- a>b | ag ef | ge dG | A2- A :|


Tune 238	Setting 22695

